!! 00000] TT[WS
!!!OTL: Nian gaomian
!!!ARE: Asia, China, Shanxi Qinyuan
!! Ethnic Group: Han
!! WII, 99 (1)
!!!SCT: J0542
!!!YEM: Copyright 1995, estate of Helmut Schaffrath.
**kern
*ICvox
*Ivox
*M2/4
*k[b-e-a-]
*E-:
{4ee-
8dd
8cc
=1
4ee-
8dd
8cc
=2
4ee-
8.gg
16cc
=3
8b-
8g
8b-
8b-
=4
8.ee-
16gg
8ff
8cc
=5
8ee-
8g
8b-
8cc
=6
2b-}
=7
{8cc
4cc
8ee-
=8
8ff
8gg
8ff
8ee-
=9
8ee-
8g
8b-
8cc
=10
8g
8f
4e-}
=11
{8b-
8cc
8b-
8b-
=12
8g
16f
16f
4e-
=13
8.ee-
16gg
8ff
8ee-
=14
8ee-
8g
8b-
8cc
=15
8g
8f
4e-}
==
!!!AGN: Xiaodiao. Qingge, Sichun
!!!ONB: ESAC (Essen Associative Code) Database: CHINA
!!!AMT: simple duple
!!!AIN: vox
!!!EED: Helmut Schaffrath
!!!EEV: 1.0
*-
